X: 136005
T: The PET OF THE PIPERS
Q: "Irish Jig."
R: Jig.
%R: jig
B: James Kerr "Merry Melodies" v.1 p.36 s.0 #5
Z: 2016 John Chambers <jc:trillian.mit.edu>
M: 6/8
L: 1/8
K: A
uE |\
A3 cBA | ecA aec | A3 cBA | GFE dcB |\
A3 cBA | ecA aec | fga ecA | dBG A2 :|
|: ue |\
aga fga | fba gfe | aga fga | bag a2 ((3e/f/g/ |\
a)gf edc | fed cBA | fga ecA | dBG A2 :|

%%sep 1 1 500
%%sep 1 1 500

